packages/ffe-icons/icons/filled/sm/target.svg

<svg xmlns="http://www.w3.org/2000/svg" height="20" viewBox="0 -960 960 960" width="20"><path d="M480.343-116.001q-75.112 0-141.48-28.42-66.369-28.42-116.182-78.21-49.814-49.791-78.247-116.087t-28.433-141.673q0-75.378 28.42-141.246 28.42-65.869 78.21-115.682 49.791-49.814 116.087-78.247t141.673-28.433q75.378 0 141.246 28.42 65.869 28.42 115.682 78.21 49.814 49.791 78.247 115.853t28.433 141.173q0 75.112-28.42 141.48-28.42 66.369-78.21 116.182-49.791 49.814-115.853 78.247t-141.173 28.433ZM480-168q130 0 221-91t91-221q0-130-91-221t-221-91q-130 0-221 91t-91 221q0 130 91 221t221 91Zm.091-92.001q-91.629 0-155.859-64.14-64.231-64.14-64.231-155.768 0-91.629 64.14-155.859 64.14-64.231 155.768-64.231 91.629 0 155.859 64.14 64.231 64.14 64.231 155.768 0 91.629-64.14 155.859-64.14 64.231-155.768 64.231ZM480-312q70 0 119-49t49-119q0-70-49-119t-119-49q-70 0-119 49t-49 119q0 70 49 119t119 49Zm-.212-116.001q-21.326 0-36.556-15.443-15.231-15.443-15.231-36.768 0-21.326 15.443-36.556 15.443-15.231 36.768-15.231 21.326 0 36.556 15.443 15.231 15.443 15.231 36.768 0 21.326-15.443 36.556-15.443 15.231-36.768 15.231Z"/></svg>

<svg xmlns="http://www.w3.org/2000/svg" height="20" viewBox="0 -960 960 960" width="20"><path d="M480.34-116q-75.11 0-141.48-28.42-66.37-28.42-116.18-78.21-49.81-49.79-78.25-116.09Q116-405.01 116-480.39q0-75.38 28.42-141.25t78.21-115.68q49.79-49.81 116.09-78.25Q405.01-844 480.39-844q75.38 0 141.25 28.42t115.68 78.21q49.81 49.79 78.25 115.85Q844-555.45 844-480.34q0 75.11-28.42 141.48-28.42 66.37-78.21 116.18-49.79 49.81-115.85 78.25Q555.45-116 480.34-116Zm-.34-52q130 0 221-91t91-221q0-130-91-221t-221-91q-130 0-221 91t-91 221q0 130 91 221t221 91Zm.09-92q-91.63 0-155.86-64.14Q260-388.28 260-479.91q0-91.63 64.14-155.86Q388.28-700 479.91-700q91.63 0 155.86 64.14Q700-571.72 700-480.09q0 91.63-64.14 155.86Q571.72-260 480.09-260Zm-.09-52q70 0 119-49t49-119q0-70-49-119t-119-49q-70 0-119 49t-49 119q0 70 49 119t119 49Zm-.21-116q-21.33 0-36.56-15.44Q428-458.89 428-480.21q0-21.33 15.44-36.56Q458.89-532 480.21-532q21.33 0 36.56 15.44Q532-501.11 532-479.79q0 21.33-15.44 36.56Q501.11-428 479.79-428Z"/></svg>
